!!!OTL: Die kleine Spinnerin.
!!!OTL-incipit: WAS SPINNST DU FRAGTE NACHBARS FRITZ
!!!COM: W. A. Mozart
!!!ARE: Europa, Mitteleuropa, Deutschland
!!!SCT: F0881
!!!TXL: @@DE
!!!YEM: Copyright 1995, estate of Helmut Schaffrath.
**kern	**text
*ICvox	*
*clefG2	*
*M2/4	*
*k[]	*
*C:	*
{8g	1._Was
=1	=1
8cc	ſpinnſt
8g	du,
8cc	fragte
8g	.
=2	=2
8.ee	Nachbars
16dd	.
8cc}	Fritʒ,
{8b/	als
=3	=3
8a	1._er
8g	uns
8f	jüngſt
8e	be-
=4	=4
(8gL	-ſuch-
8fJ)	.
8e}	-te,
{8g	dein
=5	=5
8cc	Rädchen
8g	.
8cc	läuft
8g	ja
=6	=6
8.ee	wie
16dd	der
8cc}	Blitʒ!
{8b	Sag'
=7	=7
8a	an,
8b/	wo-
8cc	-ʒu
8dd	dies
=8	=8
4dd	fruch-
8g}	-te?
{8g	Komm
=9	=9
8b	1._lie-
16ccL	-ber
16bJ	.
8g	mit
8a	in
=10	=10
8b	un-
16ccL	-ſer
16aJ	.
8g}	Spiel!
{8g	Herr
=11	=11
8dd	Fritʒ,
8b	das
8dd	laß'
8b	ich
=12	=12
4dd	blei-
8b}	-ben!
{8g	ich
=13	=13
8ff	kann
16eeL	mir,
16ddJ	.
16ccL	wenn
16bJ	.
16aL	er's
16gJ	.
=14	=14
8.ee	wiſ-
16dd	-ſen
8cc}	will,
{8cc	ſo
=15	=15
8a	1._auch
8dd	die
8b	Ʒeit
8g	ver-
=16	=16
8g/L	-trei-
8eeJ	.
8ee}	-ben,
{8cc	auch
=17	=17
8a	ſo
8dd	die
8b	Ʒeit
8g	ver-
=18	=18
4g	-trei-
8cc}	-ben.
==	==
!!!AGN: Liebes -, Moral - Lied
!!!ONB: ESAC (Essen Associative Code) Database: FINK
!!!AMT: simple duple
!!!AIN: vox
!!!EED: Helmut Schaffrath
!!!EEV: 1.0
!!!GTL: Romanzen und Balladen
!!!Text: D. Jaeger
!!!source: Musikalischer Hausschatz der Deutschen. Eine Sammlung von über 1000 Liedern und Gesängen mit Singstimmen und Klavierbegleitung. Leipzig, Litterarisches Verlags-Haus.
!!!page: 632
!!!URL-scan: https://www.digitale-sammlungen.de/en/view/bsb11144622?page=568
!!!ENC: Anna Maria Matuszewska
!!!EEV: 2024/08/07
*-	*-